svg/perl.svg

<svg viewBox="0 0 20 20" xmlns="http://www.w3.org/2000/svg">
<rect width="100%" height="100%" fill="#004065"/>
<path d="M11.9847 10.5602C12.1326 11.4293 12.2323 12.3061 12.2832 13.1864C12.2985 13.7354 12.139 14.275 11.828 14.7269C11.756 14.9904 11.5358 14.7269 11.3791 14.7269C10.9916 14.7269 10.8498 14.3019 10.6401 14.0491C10.4305 13.7962 10.5809 13.5561 10.7206 13.35C10.8709 13.2417 10.9323 13.0016 11.1441 13.0016C11.3558 13.0016 11.3325 12.7041 11.3008 12.5468C11.4426 12.3344 11.3558 12.0029 11.4956 11.7607C11.7454 11.6502 11.6734 11.2571 11.7602 11.0382C11.8301 10.881 11.7602 10.5793 11.9593 10.5134C11.9593 10.5134 11.9826 10.5134 11.9783 10.5495L11.9847 10.5602ZM11.7412 1.58074C11.413 1.5425 11.1674 1.7656 10.8942 1.89096C10.6659 1.96762 10.4333 2.03076 10.1976 2.08007C10.0261 2.42854 9.63229 2.63464 9.42055 2.96399C9.20264 3.61614 8.79839 4.18955 8.25812 4.61284C7.48529 5.01442 7.0957 5.88772 6.84161 6.71002C6.7548 6.89487 6.76751 7.16685 6.67434 7.32408C6.36733 7.4112 6.53036 7.00961 6.49649 6.81838C6.4499 6.53153 6.70822 6.34668 6.71881 6.0662C6.82147 5.87048 6.86489 5.64892 6.84373 5.42876C6.80985 4.92943 6.96019 4.32174 6.60659 3.91165C6.39485 3.79054 6.46473 3.53131 6.39485 3.33158C6.18719 3.04678 5.92251 2.80867 5.61778 2.63252C5.36794 2.60915 5.13714 2.28405 4.88094 2.43491C4.72003 2.62402 4.4236 2.61977 4.33043 2.8705C4.27115 3.18497 3.91967 3.1021 3.69523 3.17859C3.40303 3.29333 3.02614 3.17859 2.78688 3.41232C2.54762 3.64605 2.15167 3.99027 2.27236 4.38336C2.54762 4.92518 3.25693 4.65321 3.64441 4.98255C3.5216 5.34589 3.37974 5.70073 3.22094 6.04495C3.1571 6.51824 3.14716 6.99728 3.1913 7.47282C3.2654 7.94878 3.1426 8.56072 3.54066 8.89431C3.76722 8.97931 3.75239 9.24491 3.83921 9.44039C3.92602 9.63587 4.09329 9.37027 4.16316 9.55938C4.3749 9.67199 4.18433 9.90784 4.29655 10.0481C4.48225 10.0851 4.65304 10.176 4.78778 10.3094C5.00124 10.46 5.2004 10.63 5.38276 10.8173C5.5225 11.1041 5.69824 10.5368 5.85281 10.7514C5.87001 10.7938 5.89539 10.8325 5.92748 10.865C5.95958 10.8976 5.99776 10.9235 6.03985 10.9413C6.08193 10.9591 6.1271 10.9683 6.17275 10.9686C6.21841 10.9688 6.26366 10.96 6.30592 10.9426L6.34404 10.9256C6.62737 10.8773 6.89476 10.7606 7.12322 10.5857C7.27355 11.1211 7.1571 11.7012 7.22486 12.2536C7.31576 12.6561 7.37313 13.0655 7.39636 13.4775C7.50062 13.8842 7.56096 14.3009 7.57634 14.7205C7.69077 15.5938 7.54334 16.4815 7.15287 17.2703C7.12982 17.391 7.07134 17.502 6.98494 17.5891C6.89853 17.6762 6.78816 17.7353 6.66799 17.759C6.49437 17.8397 6.1323 17.9715 6.24452 18.2349C6.64894 18.5834 7.29049 18.5452 7.75208 18.3667C8.05909 18.2179 7.79442 17.844 7.95111 17.6166C8.16284 16.8198 8.05698 15.9678 8.30047 15.171C8.4904 14.7696 8.56378 14.3226 8.51221 13.8812C8.56091 13.6114 8.44869 13.2863 8.62231 13.0674C8.62397 12.799 8.7208 12.5399 8.89545 12.3365C8.95251 11.9253 8.98222 11.5108 8.98438 11.0956C9.22915 11.0182 9.48717 10.9922 9.74239 11.0191C9.74239 11.2486 9.57935 11.5142 9.62805 11.7734C9.68137 12.0664 9.62561 12.3689 9.47137 12.6233C9.36338 13.078 9.28928 13.6369 9.57088 14.0215C10.0388 14.5357 10.6486 14.899 11.089 15.4472C11.1219 15.4734 11.1492 15.506 11.1695 15.5429C11.1897 15.5798 11.2025 15.6203 11.207 15.6622C11.2116 15.7041 11.2078 15.7465 11.1959 15.7869C11.184 15.8273 11.1642 15.865 11.1377 15.8977L11.1102 15.9295C11.0711 16.0761 10.9969 16.2109 10.8939 16.322C10.7909 16.4332 10.6623 16.5173 10.5195 16.567C10.3352 16.6413 10.0388 16.9176 10.2548 17.1088C10.6898 17.2034 11.1429 17.1694 11.5591 17.0111C11.8449 16.9069 11.7412 16.5606 11.8534 16.3439C12.006 16.5536 12.1474 16.7713 12.2769 16.9962C12.4547 17.2618 12.7617 17.0429 12.9735 16.9579C12.9985 16.5697 12.9204 16.1818 12.7469 15.8339C12.6495 15.5938 12.2663 15.5874 12.2875 15.3112C12.4759 14.6122 12.9417 14.0682 13.3122 13.4775C13.6171 13.1822 13.3885 12.7466 13.4054 12.3769C13.306 11.423 13.5354 10.4638 14.0554 9.65924C14.1667 10.1047 14.3082 10.542 14.4789 10.9681C14.5992 11.4685 14.8197 11.9391 15.1268 12.3514C15.2687 12.8486 15.2306 13.401 15.3259 13.9131C15.4585 14.8053 15.4059 15.7153 15.1713 16.5861C15.1946 16.9048 14.896 17.1385 14.9236 17.4509C15.0061 17.7356 15.347 17.5061 15.5143 17.6273C15.6662 17.6759 15.8306 17.6673 15.9768 17.6032C16.1229 17.5391 16.2407 17.4238 16.3083 17.2788C16.2363 17.0361 16.1874 16.7871 16.1622 16.5351C15.9224 15.7977 15.87 15.0118 16.0098 14.2488C16.0373 13.8366 16.285 13.333 15.9653 12.9739C15.8764 12.5957 16.0267 12.1878 15.9357 11.7989C15.7225 10.8067 15.6988 9.78283 15.8658 8.7817C15.9208 8.64146 15.8658 8.38224 16.0161 8.30574C16.1641 8.52763 16.23 8.79449 16.2024 9.06005C16.3376 9.47199 16.3545 9.91381 16.2511 10.3349C15.9971 10.66 16.1537 11.0999 16.1855 11.4653C16.2278 11.7246 16.4946 11.5397 16.5349 11.3782C16.7674 10.9385 16.9554 10.4766 17.096 9.99921C17.2569 9.78673 17.096 9.5275 17.096 9.30015C17.3437 9.26828 17.2484 8.98993 17.1171 8.87519C16.9837 8.42898 17.0155 7.91053 16.717 7.53019C16.2428 7.03963 15.8503 6.47573 15.5545 5.8601C15.2306 4.85719 14.3307 4.19 14.0258 3.17647C13.9683 2.8858 13.8524 2.60991 13.6854 2.36555C13.5183 2.12118 13.3035 1.91345 13.0539 1.75498C12.8291 1.65086 12.5961 1.56558 12.3573 1.5C12.1544 1.54246 11.9483 1.56804 11.7412 1.57649" fill="white"/>
</svg>

<svg xmlns="http://www.w3.org/2000/svg" viewBox="0 0 20 20">
  <rect width="100%" height="100%" fill="#004065"/>
  <path fill="#fff" d="M11.98 10.56c.15.87.25 1.75.3 2.63.02.55-.14 1.09-.45 1.54-.07.26-.3 0-.45 0-.39 0-.53-.43-.74-.68-.21-.25-.06-.5.08-.7.15-.1.21-.35.42-.35.22 0 .2-.3.16-.45.14-.22.06-.55.2-.79.25-.11.17-.5.26-.72.07-.16 0-.46.2-.53 0 0 .02 0 .02.04v.01Zm-.24-8.98c-.33-.04-.57.19-.85.31-.22.08-.46.14-.7.19-.16.35-.56.55-.77.88a3.5 3.5 0 0 1-1.16 1.65c-.77.4-1.16 1.28-1.42 2.1-.09.18-.07.46-.17.61-.3.1-.14-.31-.17-.5-.05-.29.2-.47.22-.75.1-.2.14-.42.12-.64-.03-.5.12-1.1-.23-1.52-.22-.12-.15-.38-.22-.58-.2-.28-.47-.52-.77-.7-.25-.02-.48-.35-.74-.2-.16.2-.46.19-.55.44-.06.31-.41.23-.63.3-.3.12-.67 0-.91.24s-.64.58-.52.97c.28.55.99.27 1.37.6-.12.37-.26.72-.42 1.06-.06.48-.07.96-.03 1.43.08.48-.05 1.1.35 1.42.23.09.21.35.3.55.09.2.25-.07.32.12.21.11.02.35.14.49.18.04.35.13.49.26.21.15.41.32.6.5.13.3.3-.27.46-.06a.35.35 0 0 0 .46.2l.03-.02c.29-.05.55-.17.78-.34.15.53.04 1.11.1 1.66.1.4.15.82.18 1.23.1.4.16.82.18 1.24.11.87-.04 1.76-.43 2.55a.62.62 0 0 1-.48.49c-.18.08-.54.21-.43.47.4.35 1.05.32 1.51.14.3-.15.04-.53.2-.75.21-.8.1-1.65.35-2.45.19-.4.26-.85.21-1.29.05-.27-.06-.6.11-.81 0-.27.1-.53.28-.73.05-.41.08-.83.08-1.24.25-.08.5-.1.76-.08 0 .23-.16.5-.11.75.05.3 0 .6-.16.85-.1.46-.18 1.02.1 1.4.47.52 1.08.88 1.52 1.43a.32.32 0 0 1 .05.45l-.03.03a.93.93 0 0 1-.59.64c-.18.07-.48.35-.27.54.44.1.9.06 1.3-.1.3-.1.2-.45.3-.67.16.21.3.43.43.66.17.26.48.04.7-.04a2.2 2.2 0 0 0-.23-1.13c-.1-.24-.48-.24-.46-.52.19-.7.65-1.24 1.02-1.83.3-.3.08-.73.1-1.1a4.2 4.2 0 0 1 .65-2.72c.1.44.25.88.42 1.3.12.5.34.98.65 1.4.14.49.1 1.04.2 1.55.13.9.08 1.8-.16 2.68.02.31-.27.55-.25.86.09.29.43.06.6.18a.65.65 0 0 0 .79-.35c-.07-.24-.12-.5-.15-.74a4.67 4.67 0 0 1-.15-2.3c.03-.4.27-.9-.04-1.27-.1-.37.06-.78-.03-1.17-.22-1-.24-2.02-.07-3.02.05-.14 0-.4.15-.47.14.22.21.48.18.75.14.41.15.85.05 1.27-.25.33-.1.77-.06 1.14.04.25.3.07.34-.1.24-.43.43-.9.57-1.37.16-.21 0-.47 0-.7.24-.03.15-.31.02-.42-.14-.45-.1-.97-.4-1.35a6.38 6.38 0 0 1-1.17-1.67c-.32-1-1.22-1.67-1.52-2.68a2.2 2.2 0 0 0-.98-1.43c-.22-.1-.45-.18-.7-.25-.2.04-.4.07-.6.08"/>
</svg>
